src/files/images/getting_started/Icon_terminal.svg

<svg xmlns="http://www.w3.org/2000/svg" viewBox="0 0 30 28"><style>.st0{fill:#FFF}</style><g id="レイヤー_6"><g id="XMLID_29_"><path id="XMLID_32_" class="st0" d="M25.5 4.5h-21c-.4 0-.8.3-.8.8v17.4c0 .4.3.8.8.8h20.9c.4 0 .8-.3.8-.8V5.3c.1-.5-.3-.8-.7-.8zm-2.4 1.6c.4 0 .8.4.8.8s-.4.8-.8.8-.8-.4-.8-.8c0-.5.4-.8.8-.8zm-2.8 0c.4 0 .8.4.8.8s-.4.8-.8.8-.8-.4-.8-.8c0-.5.4-.8.8-.8zm-2.8 0c.4 0 .8.4.8.8s-.4.8-.8.8-.8-.4-.8-.8c0-.5.4-.8.8-.8zm7.2 15.8H5.3V9.1h19.4v12.8z"/><path id="XMLID_11_" class="st0" d="M8.1 18.6h.1c.1 0 .1 0 .2-.1l4-2.8c.1-.1.1-.2.1-.3v-1.2c0-.1 0-.2-.1-.3l-4-2.8c-.1-.1-.2-.1-.3 0-.1.1-.2.2-.2.3v1.4c0 .1 0 .2.1.2l2.2 1.7-2.2 2c-.1.1-.1.1-.1.2v1.4c0 .1 0 .2.2.3z"/><path id="XMLID_10_" class="st0" d="M12.1 18.6v.5c0 .3.2.5.5.5h5.2c.3 0 .5-.2.5-.5v-.5c0-.3-.2-.5-.5-.5h-5.2c-.3 0-.5.2-.5.5z"/></g></g></svg>

<?xml version="1.0" encoding="utf-8"?>
<!-- Generator: Adobe Illustrator 19.0.0, SVG Export Plug-In . SVG Version: 6.00 Build 0)  -->
<svg version="1.1" xmlns="http://www.w3.org/2000/svg" xmlns:xlink="http://www.w3.org/1999/xlink" x="0px" y="0px"
	 viewBox="0 0 30 28" style="enable-background:new 0 0 30 28;" xml:space="preserve">
<style type="text/css">
	.st0{fill:#FFFFFF;}
</style>
<g id="レイヤー_3">
</g>
<g id="レイヤー_6">
	<g id="XMLID_29_">
		<path id="XMLID_32_" class="st0" d="M25.5,4.5H4.5c-0.4,0-0.8,0.3-0.8,0.8v17.4c0,0.4,0.3,0.8,0.8,0.8h20.9c0.4,0,0.8-0.3,0.8-0.8
			V5.3C26.3,4.8,25.9,4.5,25.5,4.5z M23.1,6.1c0.4,0,0.8,0.4,0.8,0.8c0,0.4-0.4,0.8-0.8,0.8c-0.4,0-0.8-0.4-0.8-0.8
			C22.3,6.4,22.7,6.1,23.1,6.1z M20.3,6.1c0.4,0,0.8,0.4,0.8,0.8c0,0.4-0.4,0.8-0.8,0.8c-0.4,0-0.8-0.4-0.8-0.8
			C19.5,6.4,19.9,6.1,20.3,6.1z M17.5,6.1c0.4,0,0.8,0.4,0.8,0.8c0,0.4-0.4,0.8-0.8,0.8s-0.8-0.4-0.8-0.8
			C16.7,6.4,17.1,6.1,17.5,6.1z M24.7,21.9H5.3V9.1h19.4V21.9z"/>
		<path id="XMLID_11_" class="st0" d="M8.1,18.6c0,0,0.1,0,0.1,0c0.1,0,0.1,0,0.2-0.1l4-2.8c0.1-0.1,0.1-0.2,0.1-0.3v-1.2
			c0-0.1,0-0.2-0.1-0.3l-4-2.8c-0.1-0.1-0.2-0.1-0.3,0c-0.1,0.1-0.2,0.2-0.2,0.3v1.4c0,0.1,0,0.2,0.1,0.2l2.2,1.7L8,16.7
			c-0.1,0.1-0.1,0.1-0.1,0.2v1.4C7.9,18.4,7.9,18.5,8.1,18.6z"/>
		<path id="XMLID_10_" class="st0" d="M12.1,18.6v0.5c0,0.3,0.2,0.5,0.5,0.5h5.2c0.3,0,0.5-0.2,0.5-0.5v-0.5c0-0.3-0.2-0.5-0.5-0.5
			h-5.2C12.3,18.1,12.1,18.3,12.1,18.6z"/>
	</g>
</g>
</svg>
